!!!SOCIAL_FUNCTION:	songs of war
!!!PDT:	1913
!!!OTL: No_4_Song_of_a_Mislaid_Scalp.krn
!!!REG: Great_Lakes
!!!LANG: Non-Tone
!!!LING_GROUP: Algonquin
**kern
*staff1
*clefF4
*k[b-]
*M3/4
8.d\L
16d\Jk
=1
4d\
4A\
(12F\L
12D\)
12B-\J
=2
4A\
4A\
8.A\L
16c\Jk
=3
(8A\L
8G\J)
4F\
8.D\L
16D\Jk
=4
4F\
4F\
8.A\L
16c\Jk
=5
(8A\L
8G\J)
4F\
8.D\L
16D\Jk
=6
4.F\
16F\LL
16G\JJ
4G\
=7
4F\
8.D\L
16D\Jk
4D\
=8
2.D\
==
*-
